X:116
%%vocalfont Baskerville10Pro 11
T:When that I was a little tiny boy
M:2/4
L:1/8
K:G
%%score 1 2
V:1 clef-treble
V:2 clef-bass octave=-1
V:1
[B,GB]B/B/ [B,EG]G|[CFA]/[GB]/[FA]/[EG]/ [^DF]G/A/|[EB]2[EG]>G|[CF(A]/[B)G]/[FA]/[EG]/ [^DF][B,D]|
w:When that I was a little* tiny* boy, With a heigh ho! the wind* and the rain, A
V:2
E,2E2|A,2B,2|G,2C2|A,2B,A,|
V:1
[B,E][A,^DF][G,EG][EA]|[^DF(B]/A/)[B,D(G]/F/) [B,E][A,D]|[G,B,E][B,F][B,EG][A,EA]|[^DF(B]/A/)[B,D(G]/[F)A,]/ [G,E] [B,EG]/A/|
w:fool-ish thing was but* a* toy, For~the rain it rain-eth ev'-*ry* day, With a
V:2
G,F,E,C|B,B,/A,/ G,F,|E,=D,C,C|B,B, E, E/F/|
V:1
[B,EB]2 [EG]>G|[CF(A]/[B)G]/[FA]/[EG]/ [^DF][B,D]/D/|[B,E][A,^DF][G,EG][FB]|[E(B]/A/)[^D(G]/F/)E||
w:heigh ho! the wind* and the rain, And the rain it rain-eth ev'-*ry* day.
V:2
G2c2|A2BA|GFE=D|xB/A/[EG]2&CB,x2||

